svgs/thin/car-building.svg

<svg xmlns="http://www.w3.org/2000/svg" viewBox="0 0 640 512"><!--! Font Awesome Pro 6.0.0-alpha3 by @fontawesome - https://fontawesome.com License - https://fontawesome.com/license (Commercial License) --><path d="M208 72c-4.406 0-8 3.578-8 8v64c0 4.422 3.594 8 8 8h64c4.406 0 8-3.578 8-8v-64c0-4.422-3.594-8-8-8H208zM264 136h-48v-48h48V136zM256 208c0-4.422-3.594-8-8-8H208c-4.406 0-8 3.578-8 8v64c0 4.422 3.594 8 8 8S216 276.4 216 272V216h32C252.4 216 256 212.4 256 208zM336 40v80C336 124.4 339.6 128 344 128S352 124.4 352 120v-80C352 17.94 334.1 0 312 0h-272C17.94 0 0 17.94 0 40v432C0 476.4 3.594 480 8 480s8-3.578 8-8V40c0-13.23 10.78-24 24-24h272C325.2 16 336 26.77 336 40zM144 328h-64c-4.406 0-8 3.578-8 8v64c0 4.422 3.594 8 8 8h64c4.406 0 8-3.578 8-8v-64C152 331.6 148.4 328 144 328zM136 392h-48v-48h48V392zM144 200h-64c-4.406 0-8 3.578-8 8v64c0 4.422 3.594 8 8 8h64c4.406 0 8-3.578 8-8v-64C152 203.6 148.4 200 144 200zM136 264h-48v-48h48V264zM144 72h-64c-4.406 0-8 3.578-8 8v64c0 4.422 3.594 8 8 8h64c4.406 0 8-3.578 8-8v-64C152 75.58 148.4 72 144 72zM136 136h-48v-48h48V136zM560 336c-17.67 0-32 14.33-32 32c0 17.67 14.33 32 32 32s32-14.33 32-32C592 350.3 577.7 336 560 336zM560 384c-8.822 0-16-7.178-16-16s7.178-16 16-16s16 7.178 16 16S568.8 384 560 384zM304 336c-17.67 0-32 14.33-32 32c0 17.67 14.33 32 32 32s32-14.33 32-32C336 350.3 321.7 336 304 336zM304 384C295.2 384 288 376.8 288 368S295.2 352 304 352s16 7.178 16 16S312.8 384 304 384zM591.4 290.1l-30.13-90.39C553.4 175.1 531.2 160 506.2 160h-148.4c-25.03 0-47.19 15.95-55.09 39.7l-30.13 90.39C244.8 297 224 322 224 352v43.34c0 21.7 13.21 40.36 32 48.41V504C256 508.4 259.6 512 264 512s8-3.582 8-8v-56.47C273.6 447.7 275.1 448 276.7 448h310.7c1.594 0 3.098-.332 4.656-.4707V504c0 4.418 3.582 8 8 8S608 508.4 608 504v-60.24c18.79-8.051 32-26.71 32-48.41V352C640 322 619.2 297 591.4 290.1zM317.9 204.8C323.6 187.6 339.7 176 357.8 176h148.4c18.12 0 34.19 11.56 39.91 28.77L573.8 288H290.2L317.9 204.8zM624 395.3C624 415.6 607.6 432 587.3 432H276.7C256.4 432 240 415.6 240 395.3V352c0-26.47 21.53-48 48-48h288c26.47 0 48 21.53 48 48V395.3z"/></svg>

<svg xmlns="http://www.w3.org/2000/svg" viewBox="0 0 640 512"><!-- Font Awesome Pro 6.0.0-alpha2 by @fontawesome - https://fontawesome.com License - https://fontawesome.com/license (Commercial License) --><path d="M208 72C203.594 72 200 75.578 200 80V144C200 148.422 203.594 152 208 152H272C276.406 152 280 148.422 280 144V80C280 75.578 276.406 72 272 72H208ZM264 136H216V88H264V136ZM256 208C256 203.578 252.406 200 248 200H208C203.594 200 200 203.578 200 208V272C200 276.422 203.594 280 208 280S216 276.422 216 272V216H248C252.406 216 256 212.422 256 208ZM336 40V120C336 124.422 339.594 128 344 128S352 124.422 352 120V40C352 17.938 334.062 0 312 0H40C17.938 0 0 17.938 0 40V472C0 476.422 3.594 480 8 480S16 476.422 16 472V40C16 26.766 26.781 16 40 16H312C325.219 16 336 26.766 336 40ZM144 328H80C75.594 328 72 331.578 72 336V400C72 404.422 75.594 408 80 408H144C148.406 408 152 404.422 152 400V336C152 331.578 148.406 328 144 328ZM136 392H88V344H136V392ZM144 200H80C75.594 200 72 203.578 72 208V272C72 276.422 75.594 280 80 280H144C148.406 280 152 276.422 152 272V208C152 203.578 148.406 200 144 200ZM136 264H88V216H136V264ZM144 72H80C75.594 72 72 75.578 72 80V144C72 148.422 75.594 152 80 152H144C148.406 152 152 148.422 152 144V80C152 75.578 148.406 72 144 72ZM136 136H88V88H136V136ZM560 336C542.328 336 528 350.326 528 368C528 385.672 542.328 400 560 400S592 385.672 592 368C592 350.326 577.672 336 560 336ZM560 384C551.178 384 544 376.822 544 368S551.178 352 560 352S576 359.178 576 368S568.822 384 560 384ZM304 336C286.328 336 272 350.326 272 368C272 385.672 286.328 400 304 400S336 385.672 336 368C336 350.326 321.672 336 304 336ZM304 384C295.178 384 288 376.822 288 368S295.178 352 304 352S320 359.178 320 368S312.822 384 304 384ZM591.41 290.09L561.281 199.703C553.375 175.953 531.219 160 506.188 160H357.812C332.781 160 310.625 175.953 302.719 199.703L272.59 290.09C244.764 297.033 224 322.045 224 352V395.344C224 417.043 237.209 435.705 256 443.756V504C256 508.418 259.582 512 264 512S272 508.418 272 504V447.529C273.559 447.668 275.062 448 276.656 448H587.344C588.938 448 590.441 447.668 592 447.529V504C592 508.418 595.582 512 600 512S608 508.418 608 504V443.756C626.791 435.705 640 417.043 640 395.344V352C640 322.045 619.236 297.033 591.41 290.09ZM317.906 204.766C323.625 187.562 339.688 176 357.812 176H506.188C524.312 176 540.375 187.562 546.094 204.766L573.838 288H290.162L317.906 204.766ZM624 395.344C624 415.562 607.562 432 587.344 432H276.656C256.438 432 240 415.562 240 395.344V352C240 325.531 261.531 304 288 304H576C602.469 304 624 325.531 624 352V395.344Z"/></svg>
